X:1
T:A Home in My Heart for Jesus
T:A Home in My Heart for Jesus
T:James Milton Black
T:Lanta Wilson Smith, 1900
T:Public Domain Courtesy of the Cyber Hymnal™
C:James Milton Black
Z:Public Domain
Z:Courtesy of the Cyber Hymnal™
%%score 1 2
L:1/8
Q:1/4=110
M:4/4
K:Eb
V:1 treble 
V:2 bass 
V:1
 [B,E]>[EG] | [GB]2 [GB]>[GB] [GB]2 [B,E]2 | [B,D]2 [DF]4 [DF]>[EG] | [FA]2 [FA]>[FA] [GB]2 [FA]2 | %4
w: 1.~There’s a|home in my heart for|Je- sus, In the|heart He has cleansed from|
w: 2.~There’s a|home in my heart for|Je- sus, There’s a|sym- pa- thy rare and|
w: 3.~There’s a|home in my heart for|Je- sus, And He|whis- pers that all is|
 [EG]6 [B,E]>[EG] | [GB]2 [GB]>[GB] [Ge]2 [Bd]2 | [Bd]2 [Ac]4 [Ac]>[Ac] | %7
w: sin; ’Tis the|shrine of a deep de-|vo- tion, And my|
w: sweet; There are|days of di- vine com-|mun- ion, When His|
w: well; In the|light of His love a-|bid- ing, There’s a|
 [GB]2 [EG]>[EG] [DF]2 [Ec]2 | [DB]6 ||"^Refrain" [B,E]>[EG] | [GB]6 [GB]>[FA] | [EG]6 [EG]2 | %12
w: Sav- ior a- bides with-|in.|There’s a|home in my|heart, And|
w: pre- sence is bliss com-|plete.||||
w: joy that no words can|tell.||||
 [FA]2 [FA]>[FA] [EG]2 [DF]2 | [EG]6 [EG]>[FA] | [GB]2 [EG]2 [GB]3 [GB] | %15
w: Je- sus a- bides with-|in; He will|al- ways be a|
w: |||
w: |||
 [Ge]2 [Ee]2 !fermata![CF]2 [Ec]>[Ec] | [EB]2 [EB]>[EB] [DB]2 [B,D]2 | [B,E]6 |] %18
w: friend to me, There’s a|home in my heart for|Him.|
w: |||
w: |||
V:2
 [E,G,]>[E,B,] | [E,E]2 [E,E]>[E,E] [E,E]2 [E,G,]2 | [B,,F,]2 [B,,B,]4 [B,,B,]>[B,,B,] | %3
w: ~ ~|~ ~ ~ ~ ~|~ ~ ~ ~|
 [B,,B,]2 [B,,B,]>[B,,B,] [B,,B,]2 [B,,B,]2 | [E,B,]6 [E,G,]>[E,A,] | %5
w: ~ ~ ~ ~ ~|~ ~ ~|
 [E,E]2 [E,E]>[E,E] [E,B,]2 [G,E]2 | [A,E]2 [A,E]4 [A,E]>[A,E] | %7
w: ~ ~ ~ ~ ~|~ ~ ~ ~|
 [E,E]2 [E,B,]>[E,B,] [F,B,]2 [F,=A,]2 | [B,,B,]6 || z2 | z2 [E,E]>[E,E] [E,E]2 z2 | %11
w: ~ ~ ~ ~ ~|~||There’s a home|
 z2 [E,B,]>[E,B,] [E,B,]2 [E,B,]2 | [B,,B,]2 [B,,B,]>[B,,B,] [B,,B,]2 [B,,B,]2 | %13
w: in my heart, ~|~ ~ ~ ~ a-|
 [E,B,]2 [E,B,]2 [E,B,]2 [E,B,]>[E,B,] | [E,E]2 [E,B,]2 [E,E]3 [E,E] | %15
w: bides with- in; * *||
 [E,B,]2 [E,G,]2 !fermata![A,,A,]2 [A,,A,]>[A,,A,] | [B,,G,]2 [B,,G,]>[B,,G,] [B,,F,]2 [B,,A,]2 | %17
w: ||
 [E,G,]6 |] %18
w: |

